X:1
T:Harmony Check - Lampu Warung
M:4/4
L:1/4
Q:1/4=76
K:DDor
V:1
[V:1] "Dm7" D4 | "Dm7" D4 | "Dm7" D4 | "Dm7" D4 |
[V:1] "Dm7" D4 | "Dm7" D4 | "Dm7" D4 | "Dm7" D4 |
[V:1] "Dm7" D4 | "Dm9" D4 | "Dm7" D4 | "Dm9" D4 |
[V:1] "Dm7" D4 | "Dm7" D4 | "Em7" E4 | "Fmaj7" F4 |
[V:1] "G7" G4 | "Em7" E4 | "G7b9#5" G4 | "Em7" E2 "Dm7" D2 |
[V:1] "G7" G4 | "CM9" C4 | "Dm9" D4 | "Dm6add9" D4 |]
